X:769
T:Fair Haired Lass, The
R:reel
S:J\"orgen Fischer
H:See also #558, #669
Z:id:hn-reel-769
M:C|
K:Ador
eaag eg~g2|ga~a2 ~A2 (3Bcd|e2ag eg~g2|1 afge d2 (3Bcd:|2 agge d2ed||
cAAG EFGD|E2AE BAGB|AB^cd eg~g2|agge d2ed|
cABG EFGD|E2AE BAGB|AB^cd eg~g2|agge d2 (3Bcd||
